!!!SOCIAL_FUNCTION:	songs connected with rare medicines
!!!PDT:	1909
!!!OTL: No_82_Song_of_the_Man_Who_Succeeded.krn
!!!REG: Great_Lakes
!!!LANG: Non-Tone
!!!LING_GROUP: Algonquin
**kern	**kern
*staff2	*staff1
=1-	=1-
*clefF4	*clefF4
*k[f#c#g#]	*k[f#c#g#]
*M2/4	*M2/4
8GG#/L	12B\L
.	12B\
8GG#/J	.
.	12B\J
8GG#/L	8.B\L
8GG#/J	.
.	16B\Jk
=2	=2
8GG#/L	4B\
8GG#/J	.
8GG#/L	4B\
8GG#/J	.
=3	=3
2r	2A\
=4||	=4||
*M3/4	*M3/4
2.r	8A\L
.	8A\J
.	8A\L
.	8A\J
.	8F#\L
.	8F#\J
=5||	=5||
*M2/4	*M2/4
2r	12A\L
.	12A\
.	12A\J
.	8.Fn\L
.	16F\Jk
=6	=6
2r	4A\
.	8.Fn\L
.	16F\Jk
=7	=7
2r	2E\
=8||	=8||
*M3/4	*M3/4
2.r	8E\L
.	8E\J
.	8E\L
.	8E\J
.	8E\L
.	8E\J
=9||	=9||
*M2/4	*M2/4
2r	12A\L
.	12A\
.	12A\J
.	8.Fn\L
.	16F\Jk
=10	=10
2r	4Fn\
.	8.F\L
.	16F\Jk
=11	=11
2r	2E\
=12||	=12||
*M3/4	*M3/4
2.r	8E\L
.	8E\J
.	8E\L
.	8E\J
.	8C#/L
.	8C#/J
=13	=13
2.r	12E\L
.	12E\
.	12E\J
.	4C#/
.	8C#/L
.	8C#/J
=14||	=14||
*M2/4	*M2/4
2r	2AA/
=15	=15
2r	4AA/
.	4AA/
==	==
*-	*-
